X:1
T:James Gibb editions
T:Hail, glorious spirits - Tye
T:#
%%score [ 1 2 3 4 ]
L:1/8
Q:1/4=96
M:4/4
K:G
V:1 treble nm="Soprano" snm="S"
V:2 treble nm="Alto" snm="A"
V:3 treble-8 nm="Tenor" snm="T"
V:4 bass nm="Bass" snm="B"
V:1
"^John Austin\n(1613-69)""^Hail, glorious spirits, heirs of light""^Christopher Tye\n(c.1500-73)"!f! G2 | %1
w: Hail,|
 G3 G G2 G2 | A2 A2 B2 B2 | e2 d2 d2 ^c2 | d4 z4 | z8 | z2 A2 d3 c | B2 B2 c3 B | A2 A2 B4 | %9
w: glo- rious spi- rits,|heirs of light, the|high- born sons of|fire,||whose souls burn|clear, whose flames shine|bright: all joy,|
 A2 G4 F2 | G4 z2 G2 | G3 G G2 G2 | c2 c2 B4- | B2 e2 e2 d2 |!<(! !tenuto!d2 ^c2 !tenuto!d4!<)! | %15
w: yet all de-|sire. Hail,|all you hap- py|souls a- bove|* who make that|glo- rious ring.|
 z8 | z6 A2 | d3 c B (c d2) | e3 e !tenuto!A4 | z2 B2 c2[Q:1/4=93] e2 | %20
w: |A-|bout the spark- ling *|throne of love,|and there for|
[Q:1/4=86] d3"^rit."[Q:1/4=81] c[Q:1/4=60] !fermata!B4 |] %21
w: e- ver sing.|
V:2
!f! D2 | D3 D E2 E2 | F2 F2 G2 G2 | G2 F2 E (D E2) | F8 | z2 D2 G3 F | E2 E2 B3 A | G4 z2 C2 | %8
w: Hail,|glo- rious spi- rits,|heirs of light, the|high- born sons of *|fire,|whose souls burn|clear, whose flames shine|bright: all|
 =F3 E D2 B,2 | E2 E2 D3 C | B,4 z2 E2 | E3 E E2 E2 | G2 G2 G2 G2 | B2 A2 G4 | A4 A4- | A4 z4 | %16
w: joy, yet all de-|sire, yet all de-|sire. Hail,|all you hap- py|souls a- bove who|make that glo-|rious ring.||
 z2 E2 A3 G | (F G A2) B3 B | E4 z2 F2 | G2 B2 (A2 G2- | G) (F/E/ F2) !fermata!G4 |] %21
w: A- bout the|spark- ling * throne of|love, and|there for e\- *|* ver * * sing.|
V:3
!f! B2 | B3 B B2 G2 | d2 d2 d2 d2 | c2 A2 A2 A2 | A2 A2 d3 c | B2 B2 e3 d | c4 z2 B2 | %7
w: Hail,|glo- rious spi- rits,|heirs of light, the|high- born sons of|fire, whose souls burn|clear, whose flames shine|bright: all|
 !tenuto!e3 d c2 A2 | d4 z2 G2 | c3 B A (G A2) | G4 z2 G2 | c3 c c2 c2 | e2 e2 d4- | d2 A2 c2 d2 | %14
w: joy yet all de-|sire, all|joy, yet all de\- *|sire. Hail,|all you hap- py|souls a- bove|* who make that|
 e2 e2 d2 A2 | d3 c B (c d2) | e3 e !tenuto!A4 | z2 F2 G2 B2 | A2 G2 F2 A2 | B2 d2 c3 (B | %20
w: glo- rious ring. A-|bout the spark- ling *|throne of love,|and there for|e- ver sing, and|there for e- ver|
 AG A2) !fermata!G4 |] %21
w: * * * sing.|
V:4
!f! G,2 | G,3 G, E,2 E,2 | D,2 D,2 G,2 G,2 | C,2 D,2 A,,2 A,,2 | D,4 z2 D,2 | G,3 F, E,2 E,2 | %6
w: Hail,|glo- rious spi- rits,|heirs of light, the|high- born sons of|fire, whose|souls burn clear, whose|
 A,2 A,2 G,4 | z2 E,2 A,3 G, | =F,2 D,2 G,2 G,2 | C,2 C,2 D,2 D,2 | G,,4 z2 C,2 | C,3 C, C,2 C,2 | %12
w: flames shine bright:|all joy, yet|all de- sire, all|joy, yet all de-|sire. Hail,|all you hap- py|
 C,2 C,2 G,4- | G,2 C2 C2 B,2 | A,2 A,2 D,4 | z2 D,2 G,3 =F, | E,2 C,2 F,3 E, | D,4 z2 B,,2 | %18
w: souls a- bove|* who make that|glo- rious ring.|A- bout the|spark- ling throne of|love, and|
 C,2 E,2 D,2 D,2 | G,,2 G,2 C,2 C,2 | D,2 D,2 !fermata!G,,4 |] %21
w: there for e- ver|sing, and there for|e- ver sing.|

